X: 30050
T: Off To The Hunt
R: jig
M: 6/8
K: Edorian
|:B,EE EFA|dcB AFE|DFD FDF|AFD F/G/AF|
EFE EFA|BAB def|edB AF/G/A|1 BGE E3:|2 BGE EB/c/d||
|:e^de EGE|e^de EGE|dcd DFD|FAF DEF|
G3 A3|B3 def|edB AF/G/A|1 BGE EB/c/d:|2 BGE E3||

